assets/sRGB-LAReferent_DWG_to_Rec709_v10.cube
TITLE "sRGB-LAReferent_DWG_to_Rec709_v1.0"
LUT_1D_SIZE 4096
# sRGB - γ2.20 (exp2.40) -> LA - Referent_DWG_to_Rec709_v1.0, CineEI Shift 0.00, Black Level 0.99% IRE, Input 100% -> Output 100% - Created with LUTCalc v4.09 by Ben Turley February 2025
0.00992171 0.00992171 0.00992171
0.00999027 0.00999027 0.00999027
0.01005904 0.01005904 0.01005904
0.01012802 0.01012802 0.01012802
0.01019720 0.01019720 0.01019720
0.01026658 0.01026658 0.01026658
0.01033615 0.01033615 0.01033615
0.01040591 0.01040591 0.01040591
0.01047586 0.01047586 0.01047586
0.01054599 0.01054599 0.01054599
0.01061629 0.01061629 0.01061629
0.01068677 0.01068677 0.01068677
0.01075741 0.01075741 0.01075741
0.01082822 0.01082822 0.01082822
0.01089918 0.01089918 0.01089918
0.01097030 0.01097030 0.01097030
0.01104156 0.01104156 0.01104156
0.01111297 0.01111297 0.01111297
0.01118452 0.01118452 0.01118452
0.01125621 0.01125621 0.01125621
0.01132802 0.01132802 0.01132802
0.01139996 0.01139996 0.01139996
0.01147203 0.01147203 0.01147203
0.01154421 0.01154421 0.01154421
0.01161650 0.01161650 0.01161650
0.01168890 0.01168890 0.01168890
0.01176140 0.01176140 0.01176140
0.01183401 0.01183401 0.01183401
0.01190671 0.01190671 0.01190671
0.01197949 0.01197949 0.01197949
0.01205237 0.01205237 0.01205237
0.01212532 0.01212532 0.01212532
0.01219835 0.01219835 0.01219835
0.01227146 0.01227146 0.01227146
0.01234463 0.01234463 0.01234463
0.01241786 0.01241786 0.01241786
0.01249115 0.01249115 0.01249115
0.01256449 0.01256449 0.01256449
0.01263789 0.01263789 0.01263789
0.01271133 0.01271133 0.01271133
0.01278481 0.01278481 0.01278481
0.01285832 0.01285832 0.01285832
0.01293187 0.01293187 0.01293187
0.01300544 0.01300544 0.01300544
0.01307903 0.01307903 0.01307903
0.01315265 0.01315265 0.01315265
0.01322635 0.01322635 0.01322635
0.01330016 0.01330016 0.01330016
0.01337408 0.01337408 0.01337408
0.01344810 0.01344810 0.01344810
0.01352224 0.01352224 0.01352224
0.01359648 0.01359648 0.01359648
0.01367084 0.01367084 0.01367084
0.01374530 0.01374530 0.01374530
0.01381987 0.01381987 0.01381987
0.01389455 0.01389455 0.01389455
0.01396934 0.01396934 0.01396934
0.01404424 0.01404424 0.01404424
0.01411924 0.01411924 0.01411924
0.01419435 0.01419435 0.01419435
0.01426958 0.01426958 0.01426958
0.01434491 0.01434491 0.01434491
0.01442034 0.01442034 0.01442034
0.01449589 0.01449589 0.01449589
0.01457155 0.01457155 0.01457155
0.01464731 0.01464731 0.01464731
0.01472318 0.01472318 0.01472318
0.01479916 0.01479916 0.01479916
0.01487524 0.01487524 0.01487524
0.01495144 0.01495144 0.01495144
0.01502774 0.01502774 0.01502774
0.01510415 0.01510415 0.01510415
0.01518067 0.01518067 0.01518067
0.01525729 0.01525729 0.01525729
0.01533402 0.01533402 0.01533402
0.01541086 0.01541086 0.01541086
0.01548781 0.01548781 0.01548781
0.01556486 0.01556486 0.01556486
0.01564202 0.01564202 0.01564202
0.01571929 0.01571929 0.01571929
0.01579667 0.01579667 0.01579667
0.01587415 0.01587415 0.01587415
0.01595174 0.01595174 0.01595174
0.01602944 0.01602944 0.01602944
0.01610724 0.01610724 0.01610724
0.01618515 0.01618515 0.01618515
0.01626317 0.01626317 0.01626317
0.01634130 0.01634130 0.01634130
0.01641953 0.01641953 0.01641953
0.01649786 0.01649786 0.01649786
0.01657631 0.01657631 0.01657631
0.01665486 0.01665486 0.01665486
0.01673352 0.01673352 0.01673352
0.01681228 0.01681228 0.01681228
0.01689115 0.01689115 0.01689115
0.01697012 0.01697012 0.01697012
0.01704921 0.01704921 0.01704921
0.01712840 0.01712840 0.01712840
0.01720769 0.01720769 0.01720769
0.01728709 0.01728709 0.01728709
0.01736660 0.01736660 0.01736660
0.01744621 0.01744621 0.01744621
0.01752593 0.01752593 0.01752593
0.01760575 0.01760575 0.01760575
0.01768568 0.01768568 0.01768568
0.01776572 0.01776572 0.01776572
0.01784586 0.01784586 0.01784586
0.01792610 0.01792610 0.01792610
0.01800643 0.01800643 0.01800643
0.01808682 0.01808682 0.01808682
0.01816729 0.01816729 0.01816729
0.01824783 0.01824783 0.01824783
0.01832845 0.01832845 0.01832845
0.01840914 0.01840914 0.01840914
0.01848991 0.01848991 0.01848991
0.01857076 0.01857076 0.01857076
0.01865170 0.01865170 0.01865170
0.01873272 0.01873272 0.01873272
0.01881382 0.01881382 0.01881382
0.01889502 0.01889502 0.01889502
0.01897630 0.01897630 0.01897630
0.01905768 0.01905768 0.01905768
0.01913915 0.01913915 0.01913915
0.01922072 0.01922072 0.01922072
0.01930239 0.01930239 0.01930239
0.01938415 0.01938415 0.01938415
0.01946602 0.01946602 0.01946602
0.01954799 0.01954799 0.01954799
0.01963007 0.01963007 0.01963007
0.01971226 0.01971226 0.01971226
0.01979455 0.01979455 0.01979455
0.01987696 0.01987696 0.01987696
0.01995948 0.01995948 0.01995948
0.02004211 0.02004211 0.02004211
0.02012487 0.02012487 0.02012487
0.02020774 0.02020774 0.02020774
0.02029073 0.02029073 0.02029073
0.02037385 0.02037385 0.02037385
0.02045709 0.02045709 0.02045709
0.02054046 0.02054046 0.02054046
0.02062395 0.02062395 0.02062395
0.02070758 0.02070758 0.02070758
0.02079134 0.02079134 0.02079134
0.02087523 0.02087523 0.02087523
0.02095926 0.02095926 0.02095926
0.02104343 0.02104343 0.02104343
0.02112774 0.02112774 0.02112774
0.02121219 0.02121219 0.02121219
0.02129679 0.02129679 0.02129679
0.02138153 0.02138153 0.02138153
0.02146642 0.02146642 0.02146642
0.02155146 0.02155146 0.02155146
0.02163665 0.02163665 0.02163665
0.02172199 0.02172199 0.02172199
0.02180749 0.02180749 0.02180749
0.02189315 0.02189315 0.02189315
0.02197896 0.02197896 0.02197896
0.02206494 0.02206494 0.02206494
0.02215108 0.02215108 0.02215108
0.02223738 0.02223738 0.02223738
0.02232386 0.02232386 0.02232386
0.02241050 0.02241050 0.02241050
0.02249731 0.02249731 0.02249731
0.02258430 0.02258430 0.02258430
0.02267145 0.02267145 0.02267145
0.02275791 0.02275791 0.02275791
0.02284687 0.02284687 0.02284687
0.02293634 0.02293634 0.02293634
0.02302632 0.02302632 0.02302632
0.02311682 0.02311682 0.02311682
0.02320798 0.02320798 0.02320798
0.02329986 0.02329986 0.02329986
0.02339246 0.02339246 0.02339246
0.02348576 0.02348576 0.02348576
0.02357977 0.02357977 0.02357977
0.02367446 0.02367446 0.02367446
0.02376983 0.02376983 0.02376983
0.02386586 0.02386586 0.02386586
0.02396256 0.02396256 0.02396256
0.02405991 0.02405991 0.02405991
0.02415789 0.02415789 0.02415789
0.02425650 0.02425650 0.02425650
0.02435573 0.02435573 0.02435573
0.02445556 0.02445556 0.02445556
0.02455598 0.02455598 0.02455598
0.02465699 0.02465699 0.02465699
0.02475856 0.02475856 0.02475856
0.02486069 0.02486069 0.02486069
0.02496336 0.02496336 0.02496336
0.02506656 0.02506656 0.02506656
0.02517028 0.02517028 0.02517028
0.02527450 0.02527450 0.02527450
0.02537920 0.02537920 0.02537920
0.02548438 0.02548438 0.02548438
0.02559002 0.02559002 0.02559002
0.02569611 0.02569611 0.02569611
0.02580262 0.02580262 0.02580262
0.02590954 0.02590954 0.02590954
0.02601686 0.02601686 0.02601686
0.02612456 0.02612456 0.02612456
0.02623262 0.02623262 0.02623262
0.02634102 0.02634102 0.02634102
0.02644976 0.02644976 0.02644976
0.02655880 0.02655880 0.02655880
0.02666814 0.02666814 0.02666814
0.02677775 0.02677775 0.02677775
0.02688761 0.02688761 0.02688761
0.02699771 0.02699771 0.02699771
0.02710803 0.02710803 0.02710803
0.02721854 0.02721854 0.02721854
0.02732923 0.02732923 0.02732923
0.02744007 0.02744007 0.02744007
0.02755104 0.02755104 0.02755104
0.02766213 0.02766213 0.02766213
0.02777330 0.02777330 0.02777330
0.02788454 0.02788454 0.02788454
0.02799583 0.02799583 0.02799583
0.02810714 0.02810714 0.02810714
0.02821844 0.02821844 0.02821844
0.02832972 0.02832972 0.02832972
0.02844095 0.02844095 0.02844095
0.02855211 0.02855211 0.02855211
0.02866316 0.02866316 0.02866316
0.02877409 0.02877409 0.02877409
0.02888486 0.02888486 0.02888486
0.02899553 0.02899553 0.02899553
0.02910611 0.02910611 0.02910611
0.02921661 0.02921661 0.02921661
0.02932707 0.02932707 0.02932707
0.02943748 0.02943748 0.02943748
0.02954787 0.02954787 0.02954787
0.02965825 0.02965825 0.02965825
0.02976864 0.02976864 0.02976864
0.02987906 0.02987906 0.02987906
0.02998951 0.02998951 0.02998951
0.03010003 0.03010003 0.03010003
0.03021062 0.03021062 0.03021062
0.03032131 0.03032131 0.03032131
0.03043211 0.03043211 0.03043211
0.03054305 0.03054305 0.03054305
0.03065413 0.03065413 0.03065413
0.03076539 0.03076539 0.03076539
0.03087684 0.03087684 0.03087684
0.03098850 0.03098850 0.03098850
0.03110040 0.03110040 0.03110040
0.03121255 0.03121255 0.03121255
0.03132497 0.03132497 0.03132497
0.03143769 0.03143769 0.03143769
0.03155072 0.03155072 0.03155072
0.03166410 0.03166410 0.03166410
0.03177785 0.03177785 0.03177785
0.03189198 0.03189198 0.03189198
0.03200653 0.03200653 0.03200653
0.03212151 0.03212151 0.03212151
0.03223695 0.03223695 0.03223695
0.03235288 0.03235288 0.03235288
0.03246932 0.03246932 0.03246932
0.03258629 0.03258629 0.03258629
0.03270383 0.03270383 0.03270383
0.03282196 0.03282196 0.03282196
0.03294071 0.03294071 0.03294071
0.03306011 0.03306011 0.03306011
0.03318017 0.03318017 0.03318017
0.03330094 0.03330094 0.03330094
0.03342245 0.03342245 0.03342245
0.03354471 0.03354471 0.03354471
0.03366776 0.03366776 0.03366776
0.03379163 0.03379163 0.03379163
0.03391636 0.03391636 0.03391636
0.03404197 0.03404197 0.03404197
0.03416849 0.03416849 0.03416849
0.03429596 0.03429596 0.03429596
0.03442442 0.03442442 0.03442442
0.03455384 0.03455384 0.03455384
0.03468420 0.03468420 0.03468420
0.03481547 0.03481547 0.03481547
0.03494762 0.03494762 0.03494762
0.03508064 0.03508064 0.03508064
0.03521449 0.03521449 0.03521449
0.03534915 0.03534915 0.03534915
0.03548458 0.03548458 0.03548458
0.03562076 0.03562076 0.03562076
0.03575767 0.03575767 0.03575767
0.03589526 0.03589526 0.03589526
0.03603352 0.03603352 0.03603352
0.03617240 0.03617240 0.03617240
0.03631189 0.03631189 0.03631189
0.03645194 0.03645194 0.03645194
0.03659252 0.03659252 0.03659252
0.03673360 0.03673360 0.03673360
0.03687516 0.03687516 0.03687516
0.03701715 0.03701715 0.03701715
0.03715953 0.03715953 0.03715953
0.03730228 0.03730228 0.03730228
0.03744536 0.03744536 0.03744536
0.03758874 0.03758874 0.03758874
0.03773236 0.03773236 0.03773236
0.03787621 0.03787621 0.03787621
0.03802023 0.03802023 0.03802023
0.03816440 0.03816440 0.03816440
0.03830867 0.03830867 0.03830867
0.03845300 0.03845300 0.03845300
0.03859735 0.03859735 0.03859735
0.03874168 0.03874168 0.03874168
0.03888595 0.03888595 0.03888595
0.03903011 0.03903011 0.03903011
0.03917413 0.03917413 0.03917413
0.03931796 0.03931796 0.03931796
0.03946155 0.03946155 0.03946155
0.03960486 0.03960486 0.03960486
0.03974785 0.03974785 0.03974785
0.03989046 0.03989046 0.03989046
0.04003266 0.04003266 0.04003266
0.04017457 0.04017457 0.04017457
0.04031628 0.04031628 0.04031628
0.04045782 0.04045782 0.04045782
0.04059921 0.04059921 0.04059921
0.04074046 0.04074046 0.04074046
0.04088160 0.04088160 0.04088160
0.04102265 0.04102265 0.04102265
0.04116362 0.04116362 0.04116362
0.04130454 0.04130454 0.04130454
0.04144544 0.04144544 0.04144544
0.04158633 0.04158633 0.04158633
0.04172723 0.04172723 0.04172723
0.04186817 0.04186817 0.04186817
0.04200917 0.04200917 0.04200917
0.04215025 0.04215025 0.04215025
0.04229144 0.04229144 0.04229144
0.04243276 0.04243276 0.04243276
0.04257424 0.04257424 0.04257424
0.04271590 0.04271590 0.04271590
0.04285777 0.04285777 0.04285777
0.04299987 0.04299987 0.04299987
0.04314223 0.04314223 0.04314223
0.04328488 0.04328488 0.04328488
0.04342784 0.04342784 0.04342784
0.04357113 0.04357113 0.04357113
0.04371480 0.04371480 0.04371480
0.04385886 0.04385886 0.04385886
0.04400334 0.04400334 0.04400334
0.04414828 0.04414828 0.04414828
0.04429370 0.04429370 0.04429370
0.04443964 0.04443964 0.04443964
0.04458611 0.04458611 0.04458611
0.04473316 0.04473316 0.04473316
0.04488082 0.04488082 0.04488082
0.04502911 0.04502911 0.04502911
0.04517807 0.04517807 0.04517807
0.04532773 0.04532773 0.04532773
0.04547804 0.04547804 0.04547804
0.04562885 0.04562885 0.04562885
0.04578014 0.04578014 0.04578014
0.04593192 0.04593192 0.04593192
0.04608416 0.04608416 0.04608416
0.04623687 0.04623687 0.04623687
0.04639003 0.04639003 0.04639003
0.04654362 0.04654362 0.04654362
0.04669764 0.04669764 0.04669764
0.04685208 0.04685208 0.04685208
0.04700693 0.04700693 0.04700693
0.04716217 0.04716217 0.04716217
0.04731779 0.04731779 0.04731779
0.04747379 0.04747379 0.04747379
0.04763014 0.04763014 0.04763014
0.04778685 0.04778685 0.04778685
0.04794389 0.04794389 0.04794389
0.04810126 0.04810126 0.04810126
0.04825894 0.04825894 0.04825894
0.04841691 0.04841691 0.04841691
0.04857518 0.04857518 0.04857518
0.04873371 0.04873371 0.04873371
0.04889251 0.04889251 0.04889251
0.04905156 0.04905156 0.04905156
0.04921084 0.04921084 0.04921084
0.04937034 0.04937034 0.04937034
0.04953004 0.04953004 0.04953004
0.04968994 0.04968994 0.04968994
0.04985002 0.04985002 0.04985002
0.05001026 0.05001026 0.05001026
0.05017065 0.05017065 0.05017065
0.05033117 0.05033117 0.05033117
0.05049182 0.05049182 0.05049182
0.05065257 0.05065257 0.05065257
0.05081348 0.05081348 0.05081348
0.05097475 0.05097475 0.05097475
0.05113639 0.05113639 0.05113639
0.05129838 0.05129838 0.05129838
0.05146072 0.05146072 0.05146072
0.05162337 0.05162337 0.05162337
0.05178633 0.05178633 0.05178633
0.05194959 0.05194959 0.05194959
0.05211312 0.05211312 0.05211312
0.05227692 0.05227692 0.05227692
0.05244096 0.05244096 0.05244096
0.05260524 0.05260524 0.05260524
0.05276973 0.05276973 0.05276973
0.05293442 0.05293442 0.05293442
0.05309929 0.05309929 0.05309929
0.05326433 0.05326433 0.05326433
0.05342952 0.05342952 0.05342952
0.05359484 0.05359484 0.05359484
0.05376027 0.05376027 0.05376027
0.05392580 0.05392580 0.05392580
0.05409141 0.05409141 0.05409141
0.05425708 0.05425708 0.05425708
0.05442280 0.05442280 0.05442280
0.05458854 0.05458854 0.05458854
0.05475429 0.05475429 0.05475429
0.05492002 0.05492002 0.05492002
0.05508572 0.05508572 0.05508572
0.05525137 0.05525137 0.05525137
0.05541695 0.05541695 0.05541695
0.05558244 0.05558244 0.05558244
0.05574781 0.05574781 0.05574781
0.05591306 0.05591306 0.05591306
0.05607804 0.05607804 0.05607804
0.05624264 0.05624264 0.05624264
0.05640691 0.05640691 0.05640691
0.05657089 0.05657089 0.05657089
0.05673462 0.05673462 0.05673462
0.05689814 0.05689814 0.05689814
0.05706148 0.05706148 0.05706148
0.05722470 0.05722470 0.05722470
0.05738783 0.05738783 0.05738783
0.05755091 0.05755091 0.05755091
0.05771399 0.05771399 0.05771399
0.05787712 0.05787712 0.05787712
0.05804033 0.05804033 0.05804033
0.05820367 0.05820367 0.05820367
0.05836720 0.05836720 0.05836720
0.05853094 0.05853094 0.05853094
0.05869496 0.05869496 0.05869496
0.05885929 0.05885929 0.05885929
0.05902399 0.05902399 0.05902399
0.05918911 0.05918911 0.05918911
0.05935468 0.05935468 0.05935468
0.05952078 0.05952078 0.05952078
0.05968743 0.05968743 0.05968743
0.05985471 0.05985471 0.05985471
0.06002265 0.06002265 0.06002265
0.06019131 0.06019131 0.06019131
0.06036074 0.06036074 0.06036074
0.06053100 0.06053100 0.06053100
0.06070214 0.06070214 0.06070214
0.06087406 0.06087406 0.06087406
0.06104536 0.06104536 0.06104536
0.06121579 0.06121579 0.06121579
0.06138551 0.06138551 0.06138551
0.06155468 0.06155468 0.06155468
0.06172345 0.06172345 0.06172345
0.06189201 0.06189201 0.06189201
0.06206050 0.06206050 0.06206050
0.06222910 0.06222910 0.06222910
0.06239798 0.06239798 0.06239798
0.06256732 0.06256732 0.06256732
0.06273728 0.06273728 0.06273728
0.06290804 0.06290804 0.06290804
0.06307979 0.06307979 0.06307979
0.06325270 0.06325270 0.06325270
0.06342696 0.06342696 0.06342696
0.06360275 0.06360275 0.06360275
0.06378026 0.06378026 0.06378026
0.06395969 0.06395969 0.06395969
0.06414121 0.06414121 0.06414121
0.06432504 0.06432504 0.06432504
0.06451136 0.06451136 0.06451136
0.06470037 0.06470037 0.06470037
0.06489228 0.06489228 0.06489228
0.06508728 0.06508728 0.06508728
0.06528560 0.06528560 0.06528560
0.06547382 0.06547382 0.06547382
0.06563528 0.06563528 0.06563528
0.06579891 0.06579891 0.06579891
0.06596486 0.06596486 0.06596486
0.06613316 0.06613316 0.06613316
0.06630367 0.06630367 0.06630367
0.06647631 0.06647631 0.06647631
0.06665096 0.06665096 0.06665096
0.06682751 0.06682751 0.06682751
0.06700585 0.06700585 0.06700585
0.06718588 0.06718588 0.06718588
0.06736748 0.06736748 0.06736748
0.06755054 0.06755054 0.06755054
0.06773497 0.06773497 0.06773497
0.06792063 0.06792063 0.06792063
0.06810744 0.06810744 0.06810744
0.06829527 0.06829527 0.06829527
0.06848402 0.06848402 0.06848402
0.06867357 0.06867357 0.06867357
0.06886382 0.06886382 0.06886382
0.06905466 0.06905466 0.06905466
0.06924598 0.06924598 0.06924598
0.06943766 0.06943766 0.06943766
0.06962960 0.06962960 0.06962960
0.06982168 0.06982168 0.06982168
0.07001380 0.07001380 0.07001380
0.07020584 0.07020584 0.07020584
0.07039770 0.07039770 0.07039770
0.07058926 0.07058926 0.07058926
0.07078041 0.07078041 0.07078041
0.07097105 0.07097105 0.07097105
0.07116105 0.07116105 0.07116105
0.07135032 0.07135032 0.07135032
0.07153873 0.07153873 0.07153873
0.07172618 0.07172618 0.07172618
0.07191256 0.07191256 0.07191256
0.07209775 0.07209775 0.07209775
0.07228179 0.07228179 0.07228179
0.07246519 0.07246519 0.07246519
0.07264808 0.07264808 0.07264808
0.07283049 0.07283049 0.07283049
0.07301246 0.07301246 0.07301246
0.07319404 0.07319404 0.07319404
0.07337528 0.07337528 0.07337528
0.07355622 0.07355622 0.07355622
0.07373691 0.07373691 0.07373691
0.07391738 0.07391738 0.07391738
0.07409769 0.07409769 0.07409769
0.07427788 0.07427788 0.07427788
0.07445799 0.07445799 0.07445799
0.07463806 0.07463806 0.07463806
0.07481815 0.07481815 0.07481815
0.07499830 0.07499830 0.07499830
0.07517854 0.07517854 0.07517854
0.07535894 0.07535894 0.07535894
0.07553952 0.07553952 0.07553952
0.07572034 0.07572034 0.07572034
0.07590144 0.07590144 0.07590144
0.07608287 0.07608287 0.07608287
0.07626466 0.07626466 0.07626466
0.07644687 0.07644687 0.07644687
0.07662953 0.07662953 0.07662953
0.07681270 0.07681270 0.07681270
0.07699642 0.07699642 0.07699642
0.07718074 0.07718074 0.07718074
0.07736568 0.07736568 0.07736568
0.07755132 0.07755132 0.07755132
0.07773768 0.07773768 0.07773768
0.07792481 0.07792481 0.07792481
0.07811275 0.07811275 0.07811275
0.07830156 0.07830156 0.07830156
0.07849127 0.07849127 0.07849127
0.07868185 0.07868185 0.07868185
0.07887323 0.07887323 0.07887323
0.07906539 0.07906539 0.07906539
0.07925829 0.07925829 0.07925829
0.07945188 0.07945188 0.07945188
0.07964612 0.07964612 0.07964612
0.07984098 0.07984098 0.07984098
0.08003642 0.08003642 0.08003642
0.08023240 0.08023240 0.08023240
0.08042888 0.08042888 0.08042888
0.08062582 0.08062582 0.08062582
0.08082318 0.08082318 0.08082318
0.08102093 0.08102093 0.08102093
0.08121902 0.08121902 0.08121902
0.08141741 0.08141741 0.08141741
0.08161608 0.08161608 0.08161608
0.08181497 0.08181497 0.08181497
0.08201405 0.08201405 0.08201405
0.08221328 0.08221328 0.08221328
0.08241262 0.08241262 0.08241262
0.08261203 0.08261203 0.08261203
0.08281148 0.08281148 0.08281148
0.08301092 0.08301092 0.08301092
0.08321032 0.08321032 0.08321032
0.08340963 0.08340963 0.08340963
0.08360883 0.08360883 0.08360883
0.08380786 0.08380786 0.08380786
0.08400670 0.08400670 0.08400670
0.08420530 0.08420530 0.08420530
0.08440362 0.08440362 0.08440362
0.08460162 0.08460162 0.08460162
0.08479928 0.08479928 0.08479928
0.08499654 0.08499654 0.08499654
0.08519337 0.08519337 0.08519337
0.08538988 0.08538988 0.08538988
0.08558622 0.08558622 0.08558622
0.08578240 0.08578240 0.08578240
0.08597845 0.08597845 0.08597845
0.08617437 0.08617437 0.08617437
0.08637018 0.08637018 0.08637018
0.08656588 0.08656588 0.08656588
0.08676149 0.08676149 0.08676149
0.08695702 0.08695702 0.08695702
0.08715248 0.08715248 0.08715248
0.08734789 0.08734789 0.08734789
0.08754326 0.08754326 0.08754326
0.08773859 0.08773859 0.08773859
0.08793391 0.08793391 0.08793391
0.08812922 0.08812922 0.08812922
0.08832453 0.08832453 0.08832453
0.08851986 0.08851986 0.08851986
0.08871523 0.08871523 0.08871523
0.08891063 0.08891063 0.08891063
0.08910609 0.08910609 0.08910609
0.08930161 0.08930161 0.08930161
0.08949721 0.08949721 0.08949721
0.08969291 0.08969291 0.08969291
0.08988870 0.08988870 0.08988870
0.09008461 0.09008461 0.09008461
0.09028064 0.09028064 0.09028064
0.09047681 0.09047681 0.09047681
0.09067314 0.09067314 0.09067314
0.09086962 0.09086962 0.09086962
0.09106628 0.09106628 0.09106628
0.09126313 0.09126313 0.09126313
0.09146017 0.09146017 0.09146017
0.09165742 0.09165742 0.09165742
0.09185490 0.09185490 0.09185490
0.09205256 0.09205256 0.09205256
0.09225020 0.09225020 0.09225020
0.09244780 0.09244780 0.09244780
0.09264537 0.09264537 0.09264537
0.09284292 0.09284292 0.09284292
0.09304047 0.09304047 0.09304047
0.09323804 0.09323804 0.09323804
0.09343562 0.09343562 0.09343562
0.09363325 0.09363325 0.09363325
0.09383093 0.09383093 0.09383093
0.09402867 0.09402867 0.09402867
0.09422649 0.09422649 0.09422649
0.09442441 0.09442441 0.09442441
0.09462243 0.09462243 0.09462243
0.09482058 0.09482058 0.09482058
0.09501886 0.09501886 0.09501886
0.09521728 0.09521728 0.09521728
0.09541586 0.09541586 0.09541586
0.09561462 0.09561462 0.09561462
0.09581357 0.09581357 0.09581357
0.09601272 0.09601272 0.09601272
0.09621208 0.09621208 0.09621208
0.09641167 0.09641167 0.09641167
0.09661151 0.09661151 0.09661151
0.09681159 0.09681159 0.09681159
0.09701195 0.09701195 0.09701195
0.09721259 0.09721259 0.09721259
0.09741352 0.09741352 0.09741352
0.09761476 0.09761476 0.09761476
0.09781632 0.09781632 0.09781632
0.09801822 0.09801822 0.09801822
0.09822046 0.09822046 0.09822046
0.09842307 0.09842307 0.09842307
0.09862605 0.09862605 0.09862605
0.09882941 0.09882941 0.09882941
0.09903327 0.09903327 0.09903327
0.09923771 0.09923771 0.09923771
0.09944271 0.09944271 0.09944271
0.09964822 0.09964822 0.09964822
0.09985422 0.09985422 0.09985422
0.10006068 0.10006068 0.10006068
0.10026756 0.10026756 0.10026756
0.10047482 0.10047482 0.10047482
0.10068244 0.10068244 0.10068244
0.10089039 0.10089039 0.10089039
0.10109862 0.10109862 0.10109862
0.10130711 0.10130711 0.10130711
0.10151583 0.10151583 0.10151583
0.10172474 0.10172474 0.10172474
0.10193381 0.10193381 0.10193381
0.10214301 0.10214301 0.10214301
0.10235230 0.10235230 0.10235230
0.10256166 0.10256166 0.10256166
0.10277105 0.10277105 0.10277105
0.10298044 0.10298044 0.10298044
0.10318979 0.10318979 0.10318979
0.10339908 0.10339908 0.10339908
0.10360827 0.10360827 0.10360827
0.10381733 0.10381733 0.10381733
0.10402623 0.10402623 0.10402623
0.10423494 0.10423494 0.10423494
0.10444342 0.10444342 0.10444342
0.10465164 0.10465164 0.10465164
0.10485958 0.10485958 0.10485958
0.10506719 0.10506719 0.10506719
0.10527445 0.10527445 0.10527445
0.10548133 0.10548133 0.10548133
0.10568779 0.10568779 0.10568779
0.10589380 0.10589380 0.10589380
0.10609933 0.10609933 0.10609933
0.10630433 0.10630433 0.10630433
0.10650878 0.10650878 0.10650878
0.10671274 0.10671274 0.10671274
0.10691623 0.10691623 0.10691623
0.10711929 0.10711929 0.10711929
0.10732197 0.10732197 0.10732197
0.10752430 0.10752430 0.10752430
0.10772631 0.10772631 0.10772631
0.10792805 0.10792805 0.10792805
0.10812954 0.10812954 0.10812954
0.10833084 0.10833084 0.10833084
0.10853198 0.10853198 0.10853198
0.10873299 0.10873299 0.10873299
0.10893391 0.10893391 0.10893391
0.10913477 0.10913477 0.10913477
0.10933563 0.10933563 0.10933563
0.10953651 0.10953651 0.10953651
0.10973744 0.10973744 0.10973744
0.10993848 0.10993848 0.10993848
0.11013964 0.11013964 0.11013964
0.11034098 0.11034098 0.11034098
0.11054252 0.11054252 0.11054252
0.11074431 0.11074431 0.11074431
0.11094638 0.11094638 0.11094638
0.11114876 0.11114876 0.11114876
0.11135150 0.11135150 0.11135150
0.11155463 0.11155463 0.11155463
0.11175819 0.11175819 0.11175819
0.11196220 0.11196220 0.11196220
0.11216672 0.11216672 0.11216672
0.11237177 0.11237177 0.11237177
0.11257740 0.11257740 0.11257740
0.11278363 0.11278363 0.11278363
0.11299050 0.11299050 0.11299050
0.11319805 0.11319805 0.11319805
0.11340620 0.11340620 0.11340620
0.11361478 0.11361478 0.11361478
0.11382377 0.11382377 0.11382377
